svg/editor/line_height_fill.svg

<?xml version="1.0" encoding="UTF-8"?>
<svg width="24px" height="24px" viewBox="0 0 24 24" version="1.1" xmlns="http://www.w3.org/2000/svg" xmlns:xlink="http://www.w3.org/1999/xlink">
    <title>line_height_fill</title>
    <g id="页面-1" stroke="none" stroke-width="1" fill="none" fill-rule="evenodd">
        <g id="Editor" transform="translate(-912.000000, -144.000000)" fill-rule="nonzero">
            <g id="line_height_fill" transform="translate(912.000000, 144.000000)">
                 <path d="M24,0 L24,24 L0,24 L0,0 L24,0 Z M12.5934901,23.257841 L12.5819402,23.2595131 L12.5108777,23.2950439 L12.4918791,23.2987469 L12.4918791,23.2987469 L12.4767152,23.2950439 L12.4056548,23.2595131 C12.3958229,23.2563662 12.3870493,23.2590235 12.3821421,23.2649074 L12.3780323,23.275831 L12.360941,23.7031097 L12.3658947,23.7234994 L12.3769048,23.7357139 L12.4804777,23.8096931 L12.4953491,23.8136134 L12.4953491,23.8136134 L12.5071152,23.8096931 L12.6106902,23.7357139 L12.6232938,23.7196733 L12.6232938,23.7196733 L12.6266527,23.7031097 L12.609561,23.275831 C12.6075724,23.2657013 12.6010112,23.2592993 12.5934901,23.257841 L12.5934901,23.257841 Z M12.8583906,23.1452862 L12.8445485,23.1473072 L12.6598443,23.2396597 L12.6498822,23.2499052 L12.6498822,23.2499052 L12.6471943,23.2611114 L12.6650943,23.6906389 L12.6699349,23.7034178 L12.6699349,23.7034178 L12.678386,23.7104931 L12.8793402,23.8032389 C12.8914285,23.8068999 12.9022333,23.8029875 12.9078286,23.7952264 L12.9118235,23.7811639 L12.8776777,23.1665331 C12.8752882,23.1545897 12.8674102,23.1470016 12.8583906,23.1452862 L12.8583906,23.1452862 Z M12.1430473,23.1473072 C12.1332178,23.1423925 12.1221763,23.1452606 12.1156365,23.1525954 L12.1099173,23.1665331 L12.0757714,23.7811639 C12.0751323,23.7926639 12.0828099,23.8018602 12.0926481,23.8045676 L12.108256,23.8032389 L12.3092106,23.7104931 L12.3186497,23.7024347 L12.3186497,23.7024347 L12.3225043,23.6906389 L12.340401,23.2611114 L12.337245,23.2485176 L12.337245,23.2485176 L12.3277531,23.2396597 L12.1430473,23.1473072 Z" id="MingCute" fill-rule="nonzero"></path>
                <path d="M7.06064,2.93934 L9.18196,5.06066 C9.76775,5.64645 9.76775,6.59619 9.18196,7.18198 C8.72714,7.6368 8.05292,7.73849 7.49999,7.48704 L7.49999,16.513 C8.05293,16.2615 8.72717,16.3632 9.18199,16.818 C9.76778,17.4038 9.76778,18.3536 9.18199,18.9393 L7.06067,21.0607 C6.47489,21.6464 5.52514,21.6464 4.93935,21.0607 L2.81803,18.9393 C2.23225,18.3536 2.23225,17.4038 2.81803,16.818 C3.27285,16.3632 3.94707,16.2615 4.49999,16.513 L4.49999,7.48703 C3.94706,7.73849 3.27283,7.6368 2.818,7.18198 C2.23222,6.59619 2.23222,5.64645 2.818,5.06066 L4.93932,2.93934 C5.52511,2.35355 6.47486,2.35355 7.06064,2.93934 Z M20,17.5 C20.8284,17.5 21.5,18.1716 21.5,19 C21.5,19.7797647 20.9050879,20.4204567 20.1444558,20.4931341 L20,20.5 L12,20.5 C11.1716,20.5 10.5,19.8285 10.5,19 C10.5,18.2203294 11.0949121,17.5795543 11.8555442,17.5068668 L12,17.5 L20,17.5 Z M20,10.5 C20.8284,10.5 21.5,11.1716 21.5,12 C21.5,12.7797647 20.9050879,13.4204567 20.1444558,13.4931341 L20,13.5 L12,13.5 C11.1716,13.5 10.5,12.8285 10.5,12 C10.5,11.2203294 11.0949121,10.5795543 11.8555442,10.5068668 L12,10.5 L20,10.5 Z M20,3.50005 C20.8284,3.50005 21.5,4.17162 21.5,5.00005 C21.5,5.82847 20.8284,6.50005 20,6.50005 L12,6.50005 C11.1716,6.50005 10.5,5.82847 10.5,5.00005 C10.5,4.17162 11.1716,3.50005 12,3.50005 L20,3.50005 Z" id="形状" fill="#09244B"></path>
            </g>
        </g>
    </g>
</svg>

<svg xmlns="http://www.w3.org/2000/svg" width="24" height="24"><g fill="none" fill-rule="nonzero"><path d="M24 0v24H0V0h24ZM12.593 23.258l-.011.002-.071.035-.02.004-.014-.004-.071-.035c-.01-.004-.019-.001-.024.005l-.004.01-.017.428.005.02.01.013.104.074.015.004.012-.004.104-.074.012-.016.004-.017-.017-.427c-.002-.01-.009-.017-.017-.018Zm.265-.113-.013.002-.185.093-.01.01-.003.011.018.43.005.012.008.007.201.093c.012.004.023 0 .029-.008l.004-.014-.034-.614c-.003-.012-.01-.02-.02-.022Zm-.715.002a.023.023 0 0 0-.027.006l-.006.014-.034.614c0 .012.007.02.017.024l.015-.002.201-.093.01-.008.004-.011.017-.43-.003-.012-.01-.01-.184-.092Z"/><path fill="#09244B" d="m7.06 2.94 2.122 2.12A1.5 1.5 0 0 1 7.5 7.488v9.026a1.5 1.5 0 0 1 1.682 2.426l-2.121 2.122a1.5 1.5 0 0 1-2.122 0l-2.121-2.122A1.5 1.5 0 0 1 4.5 16.513V7.487a1.5 1.5 0 0 1-1.682-2.426l2.121-2.122a1.5 1.5 0 0 1 2.122 0ZM20 17.5a1.5 1.5 0 0 1 .144 2.993L20 20.5h-8a1.5 1.5 0 0 1-.144-2.993L12 17.5h8Zm0-7a1.5 1.5 0 0 1 .144 2.993L20 13.5h-8a1.5 1.5 0 0 1-.144-2.993L12 10.5h8Zm0-7a1.5 1.5 0 0 1 0 3h-8a1.5 1.5 0 0 1 0-3h8Z"/></g></svg>
